X: 18434
T: Hunting The Hare
R: slip jig
M: 9/8
K: Dmajor
AG|:F2A AFA d2A|Bcd e2d cBA|F2A AFA D2A|1 Bcd edc dAG:|2 Bcd edc d2g||
~f3 def g2e|a2f efd cBA|1 fef def g2e|a2f edc d2g:|2 (3 fgaf (3 gabg afd|ecA ABc d||

